logo/osquery.svg

<?xml version="1.0" encoding="UTF-8" standalone="no"?>
<svg width="256px" height="255px" viewBox="0 0 256 255" version="1.1" xmlns="http://www.w3.org/2000/svg" xmlns:xlink="http://www.w3.org/1999/xlink" preserveAspectRatio="xMidYMid">
	<g>
		<path d="M255.214617,0.257580247 L255.214617,63.993679 L191.609679,127.598617 L191.609679,63.7297778 L255.214617,0.257580247" fill="#A596FF"></path>
		<path d="M128.006321,0.257580247 L128.006321,63.993679 L191.611259,127.598617 L191.611259,63.7297778 L128.006321,0.257580247" fill="#000000"></path>
		<path d="M255.345778,254.803753 L191.609679,254.803753 L128.004741,191.198815 L191.872,191.198815 L255.345778,254.803753" fill="#A596FF"></path>
		<path d="M255.345778,127.595457 L191.609679,127.595457 L128.004741,191.200395 L191.872,191.200395 L255.345778,127.595457" fill="#000000"></path>
		<path d="M0.801185185,254.936494 L0.801185185,191.198815 L64.4061235,127.593877 L64.4061235,191.462716 L0.801185185,254.936494" fill="#A596FF"></path>
		<path d="M128.009481,254.936494 L128.009481,191.198815 L64.4045432,127.593877 L64.4045432,191.462716 L128.009481,254.936494" fill="#000000"></path>
		<path d="M0.671604938,0.385580247 L64.4077037,0.385580247 L128.012642,63.9905185 L64.1453827,63.9905185 L0.671604938,0.385580247" fill="#A596FF"></path>
		<path d="M0.671604938,127.593877 L64.4077037,127.593877 L128.012642,63.9889383 L64.1453827,63.9889383 L0.671604938,127.593877" fill="#000000"></path>
	</g>
</svg>

<svg viewBox="0 0 256 255" xmlns="http://www.w3.org/2000/svg"><path fill="#A596FF" d="M255.21.25v63.73l-63.61 63.6V63.71L255.2.23"/><path d="M128 .25v63.73l63.6 63.6V63.71L127.99.23"/><path fill="#A596FF" d="M255.34 254.8H191.6l-63.61-63.61h63.86l63.47 63.6"/><path d="M255.34 127.59H191.6l-63.61 63.6h63.86l63.47-63.61"/><path fill="#A596FF" d="M.8 254.93v-63.74l63.6-63.61v63.86L.79 254.91"/><path d="M128 254.93v-63.74l-63.61-63.61v63.86l63.6 63.47"/><path fill="#A596FF" d="M.67.38H64.4l63.6 63.6H64.13L.65.37"/><path d="M.67 127.59H64.4L128 63.98H64.13L.65 127.58"/></svg>
